icons/svg/escalator.svg

﻿<?xml version="1.0" encoding="utf-8"?>
<!DOCTYPE svg PUBLIC "-//W3C//DTD SVG 1.1//EN" "http://www.w3.org/Graphics/SVG/1.1/DTD/svg11.dtd">
<svg xmlns="http://www.w3.org/2000/svg" xmlns:xlink="http://www.w3.org/1999/xlink" version="1.1" baseProfile="full" width="24" height="24" viewBox="0 0 24.00 24.00" enable-background="new 0 0 24.00 24.00" xml:space="preserve">
	<path fill="#000000" fill-opacity="1" stroke-width="0.2" stroke-linejoin="round" d="M 20,8L 18.9467,8L 6.9467,20L 4,20C 2.89543,20 2,19.1046 2,18C 2,16.8954 2.89543,16 4,16L 5.28985,16L 7,14.2899L 7,10C 7,9.44772 7.44771,9 8,9L 9,9C 9.55228,9 10,9.44772 10,10L 10,11.2899L 17.2898,4L 20,4C 21.1046,4 22,4.89544 22,6C 22,7.10457 21.1046,8 20,8 Z M 8.5,5C 9.32842,5 10,5.67158 10,6.5C 10,7.32843 9.32843,8 8.5,8C 7.67157,8 7,7.32843 7,6.5C 7,5.67158 7.67157,5 8.5,5 Z "/>
</svg>

<svg xmlns="http://www.w3.org/2000/svg" version="1.1" baseProfile="full" width="24" height="24" viewBox="0 0 24.00 24.00" xml:space="preserve"><path fill="#000" fill-opacity="1" stroke-width=".2" stroke-linejoin="round" d="M20 8h-1.053l-12 12H4c-1.105 0-2-.895-2-2s.895-2 2-2h1.29L7 14.29V10c0-.552.448-1 1-1h1c.552 0 1 .448 1 1v1.29L17.29 4H20c1.105 0 2 .895 2 2s-.895 2-2 2zM8.5 5c.828 0 1.5.672 1.5 1.5S9.328 8 8.5 8 7 7.328 7 6.5 7.672 5 8.5 5z"/></svg>
